X: 1
T: An Caitin Ban
M: 6/8
L: 1/8
R: jig
K: Amin
D|:EAA cBA|GAB c2d|ede dcA|G3 E2D|
EAA cBA|GAB c2d|efe dBG|A3 A2G:|
A2a aba|ge^f g2g|age dcA|G3 E2D|
EAA cBA|GAB c2d|efe dBG|A3 A2G:|
